symbols/web/do_not_disturb_off/materialsymbolsoutlined/do_not_disturb_off_wght300gradN25_40px.svg

<svg xmlns="http://www.w3.org/2000/svg" height="40" width="40"><path d="m24.958 20.917-2-2h4.875v2Zm8.417 15.291-3.792-3.791q-2 1.5-4.416 2.354-2.417.854-5.167.854-3.292 0-6.146-1.208Q11 33.208 8.896 31.083t-3.313-4.958Q4.375 23.292 4.375 20q0-2.75.854-5.167.854-2.416 2.354-4.416L3.792 6.625l1.416-1.417L34.792 34.75Zm-.458-7.333-1.459-1.417q1.042-1.625 1.604-3.5.563-1.875.563-3.958 0-5.75-3.937-9.688Q25.75 6.375 20 6.375q-2.083 0-3.958.563-1.875.562-3.5 1.604l-1.417-1.459q1.875-1.291 4.125-2 2.25-.708 4.75-.708 3.292 0 6.125 1.208 2.833 1.209 4.958 3.334t3.334 4.958q1.208 2.833 1.208 6.125 0 2.5-.708 4.75-.709 2.25-2 4.125Zm-4.792 2.083-9.917-10.041h-6.041v-2h4.041l-7.166-7.042q-1.292 1.708-1.98 3.771-.687 2.062-.687 4.354 0 5.75 3.937 9.688Q14.25 33.625 20 33.625q2.292 0 4.354-.687 2.063-.688 3.771-1.98Zm-5.167-12.041Zm-4.375 2.5Z"/></svg>

<svg xmlns="http://www.w3.org/2000/svg" height="40" width="40"><path d="M24.958 20.917 22.958 18.917H27.833V20.917ZM33.375 36.208 29.583 32.417Q27.583 33.917 25.167 34.771Q22.75 35.625 20 35.625Q16.708 35.625 13.854 34.417Q11 33.208 8.896 31.083Q6.792 28.958 5.583 26.125Q4.375 23.292 4.375 20Q4.375 17.25 5.229 14.833Q6.083 12.417 7.583 10.417L3.792 6.625L5.208 5.208L34.792 34.75ZM32.917 28.875 31.458 27.458Q32.5 25.833 33.062 23.958Q33.625 22.083 33.625 20Q33.625 14.25 29.688 10.312Q25.75 6.375 20 6.375Q17.917 6.375 16.042 6.938Q14.167 7.5 12.542 8.542L11.125 7.083Q13 5.792 15.25 5.083Q17.5 4.375 20 4.375Q23.292 4.375 26.125 5.583Q28.958 6.792 31.083 8.917Q33.208 11.042 34.417 13.875Q35.625 16.708 35.625 20Q35.625 22.5 34.917 24.75Q34.208 27 32.917 28.875ZM28.125 30.958 18.208 20.917H12.167V18.917H16.208L9.042 11.875Q7.75 13.583 7.062 15.646Q6.375 17.708 6.375 20Q6.375 25.75 10.312 29.688Q14.25 33.625 20 33.625Q22.292 33.625 24.354 32.938Q26.417 32.25 28.125 30.958ZM22.958 18.917Q22.958 18.917 22.958 18.917Q22.958 18.917 22.958 18.917Q22.958 18.917 22.958 18.917Q22.958 18.917 22.958 18.917Q22.958 18.917 22.958 18.917Q22.958 18.917 22.958 18.917ZM18.583 21.417Q18.583 21.417 18.583 21.417Q18.583 21.417 18.583 21.417Q18.583 21.417 18.583 21.417Q18.583 21.417 18.583 21.417Q18.583 21.417 18.583 21.417Q18.583 21.417 18.583 21.417Z"/></svg>
